X: 231
T:Unknown Jig # 1
S:irtrad-l, 5/97, P. Varlet
M:6/8
L:1/8
N:as played by Micmac Indian, Lee Cremo
R:jig
K:A
E3 EFA | B3 Bce | fea fec | ecA BAF |
E3 EFA | B3 Bce | fea fec |1 ecA A2F :|2 ecA Acd ||
e3 ecA | f3 fga | fec BAB | cAF FAc |
e3 ecA | f3 fga | fec BAB | cAA Acd |
e3 ecA | f3 fga | fec BAB | cAF Fzf |
ecA Ace | fdf fga | fec BAB | cAA A2z ||
